symbols/web/sports_mma/materialsymbolsrounded/sports_mma_fill1_24px.svg

<svg xmlns="http://www.w3.org/2000/svg" height="24" width="24"><path d="M8 21q-.425 0-.713-.288Q7 20.425 7 20v-3h10v3q0 .425-.288.712Q16.425 21 16 21Zm-1.175-5q-.35 0-.625-.225t-.35-.575l-.8-4Q5 11.075 5 11V5q0-.825.588-1.413Q6.175 3 7 3h8q.825 0 1.413.587Q17 4.175 17 5v3q0-.425.288-.713Q17.575 7 18 7t.712.287Q19 7.575 19 8v3q0 .075-.05.2l-.8 4q-.075.35-.35.575-.275.225-.625.225ZM9 10h4q.425 0 .713-.288Q14 9.425 14 9V8q0-.425-.287-.713Q13.425 7 13 7H9q-.425 0-.712.287Q8 7.575 8 8v1q0 .425.288.712Q8.575 10 9 10Z"/></svg>

<svg xmlns="http://www.w3.org/2000/svg" height="24" width="24"><path d="M8 21Q7.575 21 7.287 20.712Q7 20.425 7 20V17H17V20Q17 20.425 16.712 20.712Q16.425 21 16 21ZM6.825 16Q6.475 16 6.2 15.775Q5.925 15.55 5.85 15.2L5.05 11.2Q5 11.075 5 11Q5 10.925 5 10.8V5Q5 4.175 5.588 3.587Q6.175 3 7 3H15Q15.825 3 16.413 3.587Q17 4.175 17 5V8Q17 7.575 17.288 7.287Q17.575 7 18 7Q18.425 7 18.712 7.287Q19 7.575 19 8V10.8Q19 10.925 19 11Q19 11.075 18.95 11.2L18.15 15.2Q18.075 15.55 17.8 15.775Q17.525 16 17.175 16ZM9 10H13Q13.425 10 13.713 9.712Q14 9.425 14 9V8Q14 7.575 13.713 7.287Q13.425 7 13 7H9Q8.575 7 8.288 7.287Q8 7.575 8 8V9Q8 9.425 8.288 9.712Q8.575 10 9 10Z"/></svg>
